images/3232706.svg

<?xml version="1.0" encoding="UTF-8"?>
<svg xmlns="http://www.w3.org/2000/svg" xmlns:xlink="http://www.w3.org/1999/xlink" width="300pt" height="300pt" viewBox="0 0 300 300" version="1.1">
<defs>
<g>
<symbol overflow="visible" id="glyph0-0">
<path style="stroke:none;" d="M 0.546875 1.9375 L 0.546875 -7.75 L 6.046875 -7.75 L 6.046875 1.9375 Z M 1.171875 1.328125 L 5.4375 1.328125 L 5.4375 -7.140625 L 1.171875 -7.140625 Z M 1.171875 1.328125 "/>
</symbol>
<symbol overflow="visible" id="glyph0-1">
<path style="stroke:none;" d="M 1.078125 -8.015625 L 2.546875 -8.015625 L 6.09375 -1.3125 L 6.09375 -8.015625 L 7.15625 -8.015625 L 7.15625 0 L 5.6875 0 L 2.125 -6.703125 L 2.125 0 L 1.078125 0 Z M 1.078125 -8.015625 "/>
</symbol>
<symbol overflow="visible" id="glyph0-2">
<path style="stroke:none;" d="M 1.078125 -8.015625 L 2.171875 -8.015625 L 2.171875 -4.734375 L 6.109375 -4.734375 L 6.109375 -8.015625 L 7.1875 -8.015625 L 7.1875 0 L 6.109375 0 L 6.109375 -3.8125 L 2.171875 -3.8125 L 2.171875 0 L 1.078125 0 Z M 1.078125 -8.015625 "/>
</symbol>
</g>
</defs>
<g id="surface42169">
<rect x="0" y="0" width="300" height="300" style="fill:rgb(100%,100%,100%);fill-opacity:1;stroke:none;"/>
<path style="fill:none;stroke-width:1.2;stroke-linecap:butt;stroke-linejoin:miter;stroke:rgb(0%,0%,0%);stroke-opacity:1;stroke-miterlimit:10;" d="M 264.75 175.238281 L 245.90625 196 "/>
<path style="fill:none;stroke-width:1.2;stroke-linecap:butt;stroke-linejoin:miter;stroke:rgb(0%,0%,0%);stroke-opacity:1;stroke-miterlimit:10;" d="M 257.980469 172.882812 L 242.90625 189.492188 "/>
<path style="fill:none;stroke-width:1.2;stroke-linecap:butt;stroke-linejoin:miter;stroke:rgb(0%,0%,0%);stroke-opacity:1;stroke-miterlimit:10;" d="M 256.191406 148.539062 L 264.75 175.238281 "/>
<path style="fill:none;stroke-width:1.2;stroke-linecap:butt;stroke-linejoin:miter;stroke:rgb(0%,0%,0%);stroke-opacity:1;stroke-miterlimit:10;" d="M 245.90625 196 L 218.503906 190.066406 "/>
<path style="fill:none;stroke-width:1.2;stroke-linecap:butt;stroke-linejoin:miter;stroke:rgb(0%,0%,0%);stroke-opacity:1;stroke-miterlimit:10;" d="M 218.503906 190.066406 L 209.945312 163.363281 "/>
<path style="fill:none;stroke-width:1.2;stroke-linecap:butt;stroke-linejoin:miter;stroke:rgb(0%,0%,0%);stroke-opacity:1;stroke-miterlimit:10;" d="M 223.933594 185.378906 L 217.082031 164.019531 "/>
<path style="fill:none;stroke-width:1.2;stroke-linecap:butt;stroke-linejoin:miter;stroke:rgb(0%,0%,0%);stroke-opacity:1;stroke-miterlimit:10;" d="M 209.945312 163.363281 L 228.789062 142.601562 "/>
<path style="fill:none;stroke-width:1.2;stroke-linecap:butt;stroke-linejoin:miter;stroke:rgb(0%,0%,0%);stroke-opacity:1;stroke-miterlimit:10;" d="M 209.945312 163.363281 L 182.542969 157.429688 "/>
<path style="fill:none;stroke-width:1.2;stroke-linecap:butt;stroke-linejoin:miter;stroke:rgb(0%,0%,0%);stroke-opacity:1;stroke-miterlimit:10;" d="M 228.789062 142.601562 L 256.191406 148.539062 "/>
<path style="fill:none;stroke-width:1.2;stroke-linecap:butt;stroke-linejoin:miter;stroke:rgb(0%,0%,0%);stroke-opacity:1;stroke-miterlimit:10;" d="M 230.132812 149.644531 L 252.054688 154.394531 "/>
<path style="fill:none;stroke-width:1.2;stroke-linecap:butt;stroke-linejoin:miter;stroke:rgb(0%,0%,0%);stroke-opacity:1;stroke-miterlimit:10;" d="M 182.542969 157.429688 L 178.261719 144.078125 "/>
<path style="fill:none;stroke-width:1.2;stroke-linecap:butt;stroke-linejoin:miter;stroke:rgb(0%,0%,100%);stroke-opacity:1;stroke-miterlimit:10;" d="M 178.261719 144.078125 L 173.984375 130.730469 "/>
<path style="fill:none;stroke-width:1.2;stroke-linecap:butt;stroke-linejoin:miter;stroke:rgb(0%,0%,100%);stroke-opacity:1;stroke-miterlimit:10;" d="M 173.984375 130.730469 L 160.28125 127.761719 "/>
<path style="fill:none;stroke-width:1.2;stroke-linecap:butt;stroke-linejoin:miter;stroke:rgb(0%,0%,0%);stroke-opacity:1;stroke-miterlimit:10;" d="M 160.28125 127.761719 L 146.582031 124.792969 "/>
<path style=" stroke:none;fill-rule:nonzero;fill:rgb(100%,100%,100%);fill-opacity:1;" d="M 165.984375 124.230469 L 182.984375 124.230469 L 182.984375 137.230469 L 165.984375 137.230469 Z M 165.984375 124.230469 "/>
<g style="fill:rgb(0%,0%,100%);fill-opacity:1;">
  <use xlink:href="#glyph0-1" x="165.984375" y="134.131836"/>
  <use xlink:href="#glyph0-2" x="173.967773" y="134.131836"/>
</g>
<path style="fill:none;stroke-width:1.2;stroke-linecap:butt;stroke-linejoin:miter;stroke:rgb(0%,0%,0%);stroke-opacity:1;stroke-miterlimit:10;" d="M 146.582031 124.792969 L 142.300781 111.441406 "/>
<path style="fill:none;stroke-width:1.2;stroke-linecap:butt;stroke-linejoin:miter;stroke:rgb(0%,0%,100%);stroke-opacity:1;stroke-miterlimit:10;" d="M 142.300781 111.441406 L 138.023438 98.09375 "/>
<path style="fill:none;stroke-width:1.2;stroke-linecap:butt;stroke-linejoin:miter;stroke:rgb(0%,0%,0%);stroke-opacity:1;stroke-miterlimit:10;" d="M 139.441406 124.136719 L 136.019531 113.457031 "/>
<path style="fill:none;stroke-width:1.2;stroke-linecap:butt;stroke-linejoin:miter;stroke:rgb(0%,0%,100%);stroke-opacity:1;stroke-miterlimit:10;" d="M 136.019531 113.457031 L 132.59375 102.777344 "/>
<path style="fill:none;stroke-width:1.2;stroke-linecap:butt;stroke-linejoin:miter;stroke:rgb(0%,0%,0%);stroke-opacity:1;stroke-miterlimit:10;" d="M 127.738281 145.554688 L 146.582031 124.792969 "/>
<path style="fill:none;stroke-width:1.2;stroke-linecap:butt;stroke-linejoin:miter;stroke:rgb(0%,0%,100%);stroke-opacity:1;stroke-miterlimit:10;" d="M 138.023438 98.09375 L 124.320312 95.125 "/>
<path style="fill:none;stroke-width:1.2;stroke-linecap:butt;stroke-linejoin:miter;stroke:rgb(0%,0%,0%);stroke-opacity:1;stroke-miterlimit:10;" d="M 124.320312 95.125 L 110.621094 92.15625 "/>
<path style=" stroke:none;fill-rule:nonzero;fill:rgb(100%,100%,100%);fill-opacity:1;" d="M 134.023438 91.59375 L 142.023438 91.59375 L 142.023438 104.59375 L 134.023438 104.59375 Z M 134.023438 91.59375 "/>
<g style="fill:rgb(0%,0%,100%);fill-opacity:1;">
  <use xlink:href="#glyph0-1" x="134.023438" y="101.495117"/>
</g>
<path style="fill:none;stroke-width:1.2;stroke-linecap:butt;stroke-linejoin:miter;stroke:rgb(0%,0%,0%);stroke-opacity:1;stroke-miterlimit:10;" d="M 110.621094 92.15625 L 101.199219 102.539062 "/>
<path style="fill:none;stroke-width:1.2;stroke-linecap:butt;stroke-linejoin:miter;stroke:rgb(0%,0%,100%);stroke-opacity:1;stroke-miterlimit:10;" d="M 101.199219 102.539062 L 91.777344 112.917969 "/>
<path style="fill:none;stroke-width:1.2;stroke-linecap:butt;stroke-linejoin:miter;stroke:rgb(0%,0%,0%);stroke-opacity:1;stroke-miterlimit:10;" d="M 113.621094 98.667969 L 106.082031 106.972656 "/>
<path style="fill:none;stroke-width:1.2;stroke-linecap:butt;stroke-linejoin:miter;stroke:rgb(0%,0%,100%);stroke-opacity:1;stroke-miterlimit:10;" d="M 106.082031 106.972656 L 98.546875 115.277344 "/>
<path style="fill:none;stroke-width:1.2;stroke-linecap:butt;stroke-linejoin:miter;stroke:rgb(0%,0%,100%);stroke-opacity:1;stroke-miterlimit:10;" d="M 91.777344 112.917969 L 96.058594 126.269531 "/>
<path style="fill:none;stroke-width:1.2;stroke-linecap:butt;stroke-linejoin:miter;stroke:rgb(0%,0%,0%);stroke-opacity:1;stroke-miterlimit:10;" d="M 96.058594 126.269531 L 100.335938 139.617188 "/>
<path style=" stroke:none;fill-rule:nonzero;fill:rgb(100%,100%,100%);fill-opacity:1;" d="M 87.777344 106.417969 L 95.777344 106.417969 L 95.777344 119.417969 L 87.777344 119.417969 Z M 87.777344 106.417969 "/>
<g style="fill:rgb(0%,0%,100%);fill-opacity:1;">
  <use xlink:href="#glyph0-1" x="87.777344" y="116.319336"/>
</g>
<path style="fill:none;stroke-width:1.2;stroke-linecap:butt;stroke-linejoin:miter;stroke:rgb(0%,0%,0%);stroke-opacity:1;stroke-miterlimit:10;" d="M 100.335938 139.617188 L 127.738281 145.554688 "/>
<path style="fill:none;stroke-width:1.2;stroke-linecap:butt;stroke-linejoin:miter;stroke:rgb(0%,0%,0%);stroke-opacity:1;stroke-miterlimit:10;" d="M 104.472656 133.765625 L 126.394531 138.515625 "/>
<path style="fill:none;stroke-width:1.2;stroke-linecap:butt;stroke-linejoin:miter;stroke:rgb(0%,0%,0%);stroke-opacity:1;stroke-miterlimit:10;" d="M 100.335938 139.617188 L 81.496094 160.382812 "/>
<path style="fill:none;stroke-width:1.2;stroke-linecap:butt;stroke-linejoin:miter;stroke:rgb(0%,0%,0%);stroke-opacity:1;stroke-miterlimit:10;" d="M 81.496094 160.382812 L 54.09375 154.445312 "/>
<path style="fill:none;stroke-width:1.2;stroke-linecap:butt;stroke-linejoin:miter;stroke:rgb(0%,0%,0%);stroke-opacity:1;stroke-miterlimit:10;" d="M 77.359375 166.234375 L 55.4375 161.484375 "/>
<path style="fill:none;stroke-width:1.2;stroke-linecap:butt;stroke-linejoin:miter;stroke:rgb(0%,0%,0%);stroke-opacity:1;stroke-miterlimit:10;" d="M 90.054688 187.082031 L 81.496094 160.382812 "/>
<path style="fill:none;stroke-width:1.2;stroke-linecap:butt;stroke-linejoin:miter;stroke:rgb(0%,0%,0%);stroke-opacity:1;stroke-miterlimit:10;" d="M 54.09375 154.445312 L 44.671875 164.824219 "/>
<path style="fill:none;stroke-width:1.2;stroke-linecap:butt;stroke-linejoin:miter;stroke:rgb(0%,0%,100%);stroke-opacity:1;stroke-miterlimit:10;" d="M 44.671875 164.824219 L 35.25 175.207031 "/>
<path style="fill:none;stroke-width:1.2;stroke-linecap:butt;stroke-linejoin:miter;stroke:rgb(0%,0%,100%);stroke-opacity:1;stroke-miterlimit:10;" d="M 35.25 175.207031 L 39.53125 188.558594 "/>
<path style="fill:none;stroke-width:1.2;stroke-linecap:butt;stroke-linejoin:miter;stroke:rgb(0%,0%,0%);stroke-opacity:1;stroke-miterlimit:10;" d="M 39.53125 188.558594 L 43.808594 201.90625 "/>
<path style="fill:none;stroke-width:1.2;stroke-linecap:butt;stroke-linejoin:miter;stroke:rgb(0%,0%,100%);stroke-opacity:1;stroke-miterlimit:10;" d="M 42.386719 175.863281 L 45.8125 186.542969 "/>
<path style="fill:none;stroke-width:1.2;stroke-linecap:butt;stroke-linejoin:miter;stroke:rgb(0%,0%,0%);stroke-opacity:1;stroke-miterlimit:10;" d="M 45.8125 186.542969 L 49.234375 197.222656 "/>
<path style=" stroke:none;fill-rule:nonzero;fill:rgb(100%,100%,100%);fill-opacity:1;" d="M 31.25 168.707031 L 39.25 168.707031 L 39.25 181.707031 L 31.25 181.707031 Z M 31.25 168.707031 "/>
<g style="fill:rgb(0%,0%,100%);fill-opacity:1;">
  <use xlink:href="#glyph0-1" x="31.25" y="178.608398"/>
</g>
<path style="fill:none;stroke-width:1.2;stroke-linecap:butt;stroke-linejoin:miter;stroke:rgb(0%,0%,0%);stroke-opacity:1;stroke-miterlimit:10;" d="M 43.808594 201.90625 L 71.210938 207.84375 "/>
<path style="fill:none;stroke-width:1.2;stroke-linecap:butt;stroke-linejoin:miter;stroke:rgb(0%,0%,0%);stroke-opacity:1;stroke-miterlimit:10;" d="M 71.210938 207.84375 L 90.054688 187.082031 "/>
<path style="fill:none;stroke-width:1.2;stroke-linecap:butt;stroke-linejoin:miter;stroke:rgb(0%,0%,0%);stroke-opacity:1;stroke-miterlimit:10;" d="M 68.210938 201.332031 L 83.285156 184.722656 "/>
</g>
</svg>

<svg xmlns="http://www.w3.org/2000/svg" xmlns:xlink="http://www.w3.org/1999/xlink" width="300pt" height="300pt" viewBox="0 0 300 300"><defs><symbol overflow="visible"><path d="M.547 1.938V-7.75h5.5v9.688zm.625-.61h4.266v-8.47H1.171zm0 0"/></symbol><symbol overflow="visible" id="a"><path d="M1.078-8.016h1.47l3.546 6.704v-6.704h1.062V0H5.688L2.124-6.703V0H1.078zm0 0"/></symbol><symbol overflow="visible" id="b"><path d="M1.078-8.016h1.094v3.282H6.11v-3.282h1.077V0H6.11v-3.813H2.17V0H1.078zm0 0"/></symbol></defs><g><path fill="#fff" d="M0 0h300v300H0z"/><path d="M264.75 175.238L245.906 196M257.98 172.883l-15.074 16.61M256.19 148.54l8.56 26.698M245.906 196l-27.402-5.934M218.504 190.066l-8.56-26.703M223.934 185.38l-6.852-21.36M209.945 163.363l18.844-20.76M209.945 163.363l-27.402-5.933M228.79 142.602l27.4 5.937M230.133 149.645l21.922 4.75M182.543 157.43l-4.28-13.352" stroke-width="1.2" stroke="#000" stroke-miterlimit="10" fill="none"/><path d="M178.262 144.078l-4.278-13.348M173.984 130.73l-13.703-2.968" stroke-width="1.2" stroke="#00f" stroke-miterlimit="10" fill="none"/><path d="M160.28 127.762l-13.698-2.97" stroke-width="1.2" stroke="#000" stroke-miterlimit="10" fill="none"/><path d="M165.984 124.23h17v13h-17zm0 0" fill="#fff"/><g fill="#00f"><use xlink:href="#a" x="165.984" y="134.132"/><use xlink:href="#b" x="173.968" y="134.132"/></g><path d="M146.582 124.793l-4.28-13.352" stroke-width="1.2" stroke="#000" stroke-miterlimit="10" fill="none"/><path d="M142.3 111.44l-4.277-13.346" stroke-width="1.2" stroke="#00f" stroke-miterlimit="10" fill="none"/><path d="M139.44 124.137l-3.42-10.68" stroke-width="1.2" stroke="#000" stroke-miterlimit="10" fill="none"/><path d="M136.02 113.457l-3.426-10.68" stroke-width="1.2" stroke="#00f" stroke-miterlimit="10" fill="none"/><path d="M127.738 145.555l18.844-20.762" stroke-width="1.2" stroke="#000" stroke-miterlimit="10" fill="none"/><path d="M138.023 98.094l-13.703-2.97" stroke-width="1.2" stroke="#00f" stroke-miterlimit="10" fill="none"/><path d="M124.32 95.125l-13.7-2.97" stroke-width="1.2" stroke="#000" stroke-miterlimit="10" fill="none"/><path d="M134.023 91.594h8v13h-8zm0 0" fill="#fff"/><use xlink:href="#a" x="134.023" y="101.495" fill="#00f"/><path d="M110.62 92.156l-9.42 10.383" stroke-width="1.2" stroke="#000" stroke-miterlimit="10" fill="none"/><path d="M101.2 102.54l-9.423 10.378" stroke-width="1.2" stroke="#00f" stroke-miterlimit="10" fill="none"/><path d="M113.62 98.668l-7.538 8.305" stroke-width="1.2" stroke="#000" stroke-miterlimit="10" fill="none"/><path d="M106.082 106.973l-7.535 8.304M91.777 112.918l4.282 13.352" stroke-width="1.2" stroke="#00f" stroke-miterlimit="10" fill="none"/><path d="M96.06 126.27l4.276 13.347" stroke-width="1.2" stroke="#000" stroke-miterlimit="10" fill="none"/><path d="M87.777 106.418h8v13h-8zm0 0" fill="#fff"/><use xlink:href="#a" x="87.777" y="116.319" fill="#00f"/><path d="M100.336 139.617l27.402 5.938M104.473 133.766l21.922 4.75M100.336 139.617l-18.84 20.766M81.496 160.383l-27.402-5.938M77.36 166.234l-21.922-4.75M90.055 187.082l-8.56-26.7M54.094 154.445l-9.422 10.38" stroke-width="1.2" stroke="#000" stroke-miterlimit="10" fill="none"/><path d="M44.672 164.824l-9.422 10.383M35.25 175.207l4.28 13.352" stroke-width="1.2" stroke="#00f" stroke-miterlimit="10" fill="none"/><path d="M39.53 188.56l4.28 13.346" stroke-width="1.2" stroke="#000" stroke-miterlimit="10" fill="none"/><path d="M42.387 175.863l3.425 10.68" stroke-width="1.2" stroke="#00f" stroke-miterlimit="10" fill="none"/><path d="M45.813 186.543l3.42 10.68" stroke-width="1.2" stroke="#000" stroke-miterlimit="10" fill="none"/><path d="M31.25 168.707h8v13h-8zm0 0" fill="#fff"/><use xlink:href="#a" x="31.25" y="178.608" fill="#00f"/><path d="M43.81 201.906l27.4 5.938M71.21 207.844l18.845-20.762M68.21 201.332l15.075-16.61" stroke-width="1.2" stroke="#000" stroke-miterlimit="10" fill="none"/></g></svg>
